X: 2
T: Anniversary Waltz (\251Dave Franklin, 1941)
C:W-48
I: Anniversary Waltz, The	W-??	Dm	waltz
M: 3/4
R: waltz
K: Dm
L:1/4
"A"(A,3|A,) ^C D|(E3|E) ^C A,|"Dm"(F3|F) E D|(A3|"(D7)"A3)|"Gm"B B>B|"(C)"BAG|
"Dm(F)"A A2|"(Bb)"A G F|"A(Edim)"E2 G|"A"F2 E|1"Dm"D3|DCB,:|2"Dm"(D3|D3)||"Bb"d d>d|
"C"d d>d|"F"d c>A|c3|"Bb(C)"B B>B|"C"Bc>B|"F"B A>^G|A3|"Gm"G G>G|GAG|
"Dm"GFE|"(Dm/C)"D3|"Bb"d B G|"A"F2 E|"Dm"(D3|D3):||
%%scale .5
%%text For use only by Roaring Jelly members

%%pageheight 11.0in
%%pagewidth 8.5in
%%topmargin .3cm
%%botmargin .3cm
%%newpage
%%topspace 0cm
%%musicspace 0cm
%%subtitlespace 0cm
L:1/8
%%titlefont Times-Roman 18
%%gchordfont Helvetica-Narrow-Bold 12.0
%%setfont-1 Times-Roman 12
%%scale .7
%%textfont Times-Roman 18
%%leftmargin 2.1cm
%%rightmargin 2.6cm

%%scale .9
